X:1
T:Damours me plains 3v
T:Tielman Susato
T:Source : Le premier Livre des Chansons à 3 parties---Anvers---T.Susato---1544. Editor : André Vierendeels (01/02/15).
T:Damours me plains 3v
C:Tielman Susato
%%score [ 1 2 3 ]
L:1/8
Q:1/4=80
M:2/2
K:F
V:1 treble nm="Superius" snm="S"
V:2 treble-8 nm="Tenor" snm="T"
V:3 bass nm="Bassus" snm="B"
V:1
 z4 F4 | G4 A4 | F4 z2 F2 | A3 B c4- | c2 c2 B4 | A8 | z2 c4 B2 | A2 G3 F ED | C2 D2 EF GA | %9
w: Da-|mours me|plains et|non de vous|_ ma- my-|e,|que si|long temps _ _ _|iay re- quis _ _ _|
 GF F4 E2 | F8 | z2 F2 G4 | A4 F4 | z2 F2 A3 B | c6 c2 | B4 A4 | z2 c4 B2 | A2 G3 F ED | %18
w: _ _ sans a-|voir,|mais si|vou- lez|es- tre son|en- ne|my- e|vous con-|fon- drez _ _ _|
 C2 D2 EF GA | GF F4 E2 | F4 z2 F2 | F4 G4 | A6 A2 | A2 G2 F2 F2 | E6 E2 | F4 D4 | C4 z2 G2 | %27
w: son di- r'et _ _ _|_ _ son sca-|voir, vous|seul- le'a-|vez cest|es- ti- m'et pou-|voir, si|aul- tre-|ment ne|
 G2 G2 F2 D2 | F4 E4 | z2 G2 G2 G2 | F2 D2 F3 E/D/ | C2 E2 D4 |[M:2/4] C4 |:[M:2/2] z2 A2 A4 | %34
w: scay que fai- re'ou|di- re,|ne scay que|fai- re'ou di- * *||re,|ab- bais-|
 G4 F4- | F2 F2 F2 E2 | D2 D2 C4- | C4 z2 c2 | B2 A2 BAGF | E2 C2 F2 F2 | G2 G2 A2 F2- | %41
w: sez donc|_ son ri- gou-|reulx vou- loir,|_ et|me don- nez _ _ _|_ le bien que|ie de- si- *|
 F2 B3 A A2- | A2 G2 A4 | z2 c2 B2 A2 | A3 G/F/ E2 C2 | F2 F2 G2 G2 | A2 F4 B2- | BAGF E2 F2- | %48
w: |* * re,|et me don-|nez _ _ _ le|bien que ie de-|si- * *||
 F2 E2 F4- | F8 :| %50
w: * * re.|_|
V:2
 F3 G A2 B2 | G4 F2 F2 | B3 c d2 d2 | f6 ed | e2 f2 Bcde | f4 z2 f2- | f2 e2 d4 | c3 B/A/ G2 c2 | %8
w: Da- * * mours|ma plains et|non _ _ de|vous ma- *|my- * * * * *|e, que|_ si long|temps _ _ _ iay|
 A2 B2 c2 c2 | B2 A2 G2 G2 | F4 z2 B2 | c2 d2 B2 c2- | c2 d3 e f2- | fedc d2 d2 | cBAG F2 c2 | %15
w: re- * quie sans|_ _ _ a-|voir, mais|si vou- lez es-|* tre son en-|* * * * * ne|my- * * * e, son|
 d2 e2 f4- | f2 e2 d4 | c4 z2 c2 | A2 B2 c2 c2 | B2 A2 G2 G2 | F2 F2 B3 c | de f4 e2 | %22
w: en- ne my-||e, vous|con- fon- drez son|di- r'et son sca-|voir, vous seul- *|* * * le'a-|
 f2 c2 d2 c2 | f2 e2 d4 | z2 c2 cBAG | A2 B4 G2 | A2 c2 c2 c2 | B2 G2 B3 A | FGAB c2 z c | %29
w: vez cest es- ti-|m'et po- voir,|si aul- * * *|* * tre-|ment ne scait que|fai- re'ou di- *|* * * * re, ne|
 c2 c2 B2 G2 | B3 A F2 AG | AB c4 B2 |[M:2/4] c4 |:[M:2/2] z2 F2 FGAB | c2 c2 d2 d2 | fedc d2 c2- | %36
w: scay que fai- re'ou|di- * * * *||re,|ab- bais- * * *|* sez donc son|ri- * * * gou- reulx|
 c2 B2 c4 | z2 A2 B2 c2 | d4 B2 c2- | cBAG F2 B2 | G2 c3 A d2- | dcBA G2 A2 | B2 c2 F2 f2 | %43
w: _ vou- loir,|et me don-|nez le bien|_ _ _ _ _ que|ie de- * *||si- * re, et|
 e2 c2 d3 c/B/ | A2 F2 c2 c2 | d2 d2 e2 c2 | f3 e dcBA | G2 c3 B AG/F/ | G4 F4- | F8 :| %50
w: me don- nez _ _|_ le bien que|ie de- si- *|||||
V:3
 F,4 D,2 B,,2 |"^b" E,4 D,4 | z2 B,,4 D,2- | D,E, F,3 G, A,2- | A,2 F,2 G,4 | D,2 F,3 G, A,2 | %6
w: Da- mours me|plains _|et non|_ _ _ de vous|_ ma- mye,-|et non de vous|
 B,2 C2 G,4 | z2 C,2 C,2 C,2 | F,2 D,2 C,2 C,2 | _E,2 F,2 C,4 | z2 F,2 D,2 B,,2 | F,4 z4 | %12
w: ma- my- e,|que si long-|temps iay re- quis|sans a- voir,|mais si vou-|lez,|
 F,4 D,2 B,,2 | F,4 z2 D,2 | A,6 A,2 | G,2 G,2 F,3 E, | D,2 C,2 G,4 | C,4 z2 C,2 | %18
w: mais si vou-|lez es-|tre son|en- ne- my- *||e, vous|
 F,2 D,2 C,2 C,2 | _E,2 F,2 C,2 C,2 | F,4 z2 B,,2 | B,3 A, G,2 G,2 | F,4 D,2 F,2- | %23
w: con- fon- drez son|di- r'et son sca-|voir, vous|seul- * * le'a-|vez cest es-|
 F,2 C,2 D,2 B,,2 | C,4 z2 C2- | C2 D4 B,2 | C2 C,2 C,2 C,2 | _E,4 B,,4 | D,4 C,2 C,2 | %29
w: * ti- m'et pou-|voir, si|_ aul- tre-|ment ne scay que|fai- re'ou|di- re,- ne|
"^b" C,2 C,2 E,4 | B,,3 C, D,E, F,2- | F,2 E,2 F,2 G,2 |[M:2/4] C,4 |:[M:2/2] z2 D,2 F,4 | %34
w: scay que fai-|re'ou- * * * di-||re,|ab- bais-|
 _E,4 D,4- | D,2 B,,2 D,2 E,2 | F,2 G,2 A,4 | z2 C2 B,2 A,2 | G,2 D,2 G,2 C,2- | C,2 F,4 D,2 | %40
w: sez donc|_ son ri- gou-|reulx vou- loir,|et me don-|nez le bien que|_ ie de-|
 E,2 C,C, F,2 D,2- | D,2 G,4 F,2 | G,2 C,2 z2 F,2 | G,2 A,2 D,2 D,2 | F,2 D,2 E,2 F,2 | D,4 C,4 | %46
w: si- re, le bien que|_ ie de-|si- re, et-|me don- nez le|bien que ie de-|si- re,|
 z2 D,4 G,2- | G,F,E,D, C,2 D,2 | C,4 F,4- | F,8 :| %50
w: que ie|_ _ _ _ _ de-|si- *||

